X:1
T:Title
%%score ( 1 2 ) { 3 | 4 } ( 5 6 )
L:1/8
Q:1/4=105
M:4/4
K:C
V:1 treble nm="Grand Piano, Staff"
V:2 treble 
V:3 treble nm="Choir Pad, Materna, CMD"
V:4 bass 
V:5 treble nm="Strings 1, My Country Tis of Thee"
V:6 treble 
V:1
 [EG]2 [EG]2- [EG][CE] [CE]2 | [EG]2 [DG]2- [DG][B,D] [B,D]2 | [CE]2 [DF]2 [DG]2 [FA]2 | %3
w: By~Samuel~Augustus~Ward,~1882 * * * *|||
 [FB]2 G4- [FG]2 | [DG]2 [EG]2- [EG][CE] [CE]2 | [EG]2 [DG]2- [DG]D D2 | %6
w: |||
 [Gd]2 [G^c]2 [Gd]2 [^Fe]2 | [^FA]2 d2- [Fd-]2 [=Fd]2 | G2 [Ge]2- [Ge][Ge] [Gd]2 | %9
w: |||
 [Ec]2 [Fc]2- [Fc][GB] [GB]2 | [Gc]2 [Fd]2 [FB]2 [FA]2 | z2 c6 | [Gc]2 [Fc]2- [Fc][FA] [FA]2 | %13
w: ||||
 [Fc]2 [Ec]2- [Ec][EG] [EG]2 | G2 A2 c2 G2 | [Fd]2 [Ec]6- | [Ec]2 z2 z4 |] %17
w: ||||
V:2
 x8 | x8 | x8 | z2 E4 z2 | x8 | x8 | x8 | z2 G2 z4 | x8 | x8 | x8 | [FG]2 E4 F2 | x8 | x8 | x8 | %15
 x8 | x8 |] %17
V:3
 C2 C2- CG, G,2 | C2[K:bass] B,2- B,G, G,2 | G,2 B,2 B,2[K:treble] D2 | D2 C2 _B,2 =B,2 | %4
 B,2 C2- C[K:bass]G, G,2 | C2 B,2- B,B, B,2 | B,2 B,2 B,2[K:treble] C2 | C2 B,2 C2 D2 | %8
 G,2 C2- CC C2 | C2 D2- DD D2 | C2 B,2 B,2 C2 | D2 C2[K:bass] G,2 A,2 | _B,2 A,2- A,A, A,2 | %13
 A,2 G,2- G,/ z/[K:treble] C C2 | G,2 A,2 C2 G,2 | B,2 C6- | C2 z2 z4 |] %17
V:4
 C,2 C,2- C,C, C,2 | G,,2 D,2- D,D, D,2 | G,,2 D,2 D,2 G,,2 | G,,2 C,2 ^C,2 D,2 | %4
 G,,2 C,2- C,C, C,2 | A,,2 D,2- D,D, D,2 | D,2 D,2 D,2 D,2 | A,2 G,2 A,2 B,2 | z2 G,2- G,E, E,2 | %9
 G,2 G,2- G,D, D,2 | E,2 F,2 G,2 A,2 | B,2 z2 C,4 | C,2 F,2- F,F, F,2 | D,2 z2 z G, G,2 | z8 | %15
 G,,2 C,6- | C,2 z2 z4 |] %17
V:5
 [EG]2 [EG]2- [EG][CE] [CE]2 | [EG]2 [DG]2- [DG][B,D] [B,D]2 | [CE]2 [DF]2 [DG]2 [FA]2 | %3
 [FB]2 G4- [FG]2 | [DG]2 [EG]2- [EG][CE] [CE]2 | [EG]2 [DG]2- [DG]D D2 | %6
 [Gd]2 [G^c]2 [Gd]2 [^Fe]2 | [^FA]2 d2- [Fd-]2 [=Fd]2 | G2 [Ge]2- [Ge][Ge] [Gd]2 | %9
 [Ec]2 [Fc]2- [Fc][GB] [GB]2 | [Gc]2 [Fd]2 [FB]2 [FA]2 | z2 c6 | [Gc]2 [Fc]2- [Fc][FA] [FA]2 | %13
 [Fc]2 [Ec]2- [Ec][EG] [EG]2 | G2 A2 c2 G2 | [Fd]2 [Ec]6- | [Ec]2 z2 z4 |] %17
V:6
 x8 | x8 | x8 | z2 E4 z2 | x8 | x8 | x8 | z2 G2 z4 | x8 | x8 | x8 | [FG]2 E4 F2 | x8 | x8 | x8 | %15
 x8 | x8 |] %17

